X: 3867
T: Black Rogue, The
R: jig
M: 6/8
K: Gmajor
|:dBB BAB|dBB Bge|dBB B2A|GEE Ege|
dBB BAB|dBd g2e|dBB B2A|GEE E3:|
|:g2g aga|bge dBd|g2g aga|bge ega|
bag age|ged g2e|dBG AGE|GED D3:|

